X: 736
T: Ailein Duinn
R: jig
M: 6/8
K: Bminor
B2A B2A|B>de ed2|B2A B2d|
e2g f2e|egf e2d|B3 B3||
g2a b3|a2g gf2|f2 e/f/ b3|e2d B2A|
A3 B2A|B3 e3|g2f e2d|B3 B3||

